X:1
T:Danvers, LM
T:Lowell Mason, Juvenile Psalmist, 1829
T:Danvers, LM
T:Public Domain
C:Lowell Mason, Juvenile Psalmist, 1829
Z:Public Domain
%%score ( 1 2 ) ( 3 4 )
L:1/8
M:2/4
K:F
V:1 treble 
V:2 treble 
V:3 bass 
V:4 bass 
V:1
 F2 | [Ac]2 [GB]2 | [FA]2 [Fd]2 | ([Ac][GB]) ([FA][EG]) | F2 [CA]2 | [CG]2 [Ec]2 | %6
 (ED) ([Ec][Ff]) | ([Ge][Fd]) ([Ec][D=B]) | [Ec]2 [Fc]2 | [Fd]3 [Fd] | [Fc]2 (fc) | %11
 ([Ec][GB]) [FA]2 | [EG]2 ([FA]>[GB]) | ([Ac] [cf]2) [Bd] | (cG<F)[FB] | [FA]2 [EG]2 | F2 |] %17
V:2
 F2 | x4 | x4 | x4 | F2 x2 | x4 | B2 x2 | x4 | x4 | x4 | x2 F2 | x4 | x4 | x4 | A3/2 f2 x/ | x4 | %16
 F2 |] %17
V:3
 [F,A,]2 | [F,A,]2 [E,G,]2 | [F,C]2 [B,,B,]2 | [C,C]2 [C,C]2 | [F,C]2 CA, | [E,G,]2 [C,G,]2 | %6
 (G,F,) ([E,G,][F,D]) | (CB,) (A,G,) | [C,G,]2 A,2 | [B,D]3 B, | [A,C]2 [A,C]2 | (CD) (FD) | %12
 [C,C]2 (F>D) | (C>B, A,)[F,E] | ([F,A,]>[G,B,] [A,C])[B,F] | C2 [C,C]2 | [F,A,]2 |] %17
V:4
 x2 | x4 | x4 | x4 | x2 F,2 | x4 | G,2 x2 | G,2 G,2 | x2 A,2 | x3 B, | x4 | G,2 F,2 | x2 F,2 | %13
 F,2 x2 | x4 | C2 x2 | x2 |] %17

